X:717
T:Reel 717
M:4/4
K:Dmaj
L:1/8
G|AGFG ABcB|Addc AGFD|FEFG ABGB|Addc Addc|BAFG ABcA|GEFD EFDE|FEFG ABcB|Addc dfdd||=cAAB c2dB|Addc Add2|cdAc ABcd|eaag ecdc|cBAB c2AB|cdef gefg|afge fdec|dcAG FDD|
